packages/core/src/svgs/tokens/branded/FOOM.svg

<svg width="24" height="24" viewBox="0 0 24 24" fill="none" xmlns="http://www.w3.org/2000/svg">
<path d="M5.12646 2.62567H22.0001V19.4992H5.12646V2.62567Z" fill="#FF0000"/>
<path d="M2 5.12567H19.4986V21.3743H2V5.12567Z" fill="#00F8FF"/>
<path d="M3.25049 3.87604H20.749V20.1247H3.25049V3.87604Z" fill="black"/>
<path d="M7.62549 9.50018H15.1249L14.4374 10.4377H9.50031V12H14.9062L14.0811 12.9375H9.50031V15.7498H7.62549V9.50018Z" fill="#00F8FF"/>
<path d="M8.87549 8.25073H16.3749L15.6875 9.1882H10.7503V10.7505H16.1562L15.3313 11.688H10.7503V14.5002H8.87549V8.25073Z" fill="#FF0000"/>
<path d="M8.25 8.87512H15.7494L15.0619 9.81256H10.1248V11.3749H15.5307L14.7058 12.3124H10.1248V15.1245H8.25V8.87512Z" fill="white"/>
</svg>

<svg xmlns="http://www.w3.org/2000/svg" width="24" height="24" fill="none" viewBox="0 0 24 24">
    <path fill="red" d="M5.126 2.626H22v16.873H5.126z"/>
    <path fill="#00F8FF" d="M2 5.126h17.499v16.248H2z"/>
    <path fill="#000" d="M3.25 3.876h17.5v16.249H3.25z"/>
    <path fill="#00F8FF" d="M7.625 9.5h7.5l-.688.938H9.5V12h5.406l-.825.938h-4.58v2.812H7.624z"/>
    <path fill="red" d="M8.875 8.25h7.5l-.687.938H10.75v1.563h5.406l-.825.937h-4.58V14.5H8.874z"/>
    <path fill="#fff" d="M8.25 8.875h7.5l-.688.938h-4.937v1.562h5.406l-.825.937h-4.581v2.813H8.25z"/>
</svg>
